file/mpa.svg

<svg clip-rule="evenodd" fill-rule="evenodd" stroke-linejoin="round" stroke-miterlimit="1.41421" viewBox="0 0 560 400" xmlns="http://www.w3.org/2000/svg"><path d="m374.5 209.9c0 2.7-.7 5.3-2.1 7.7s-3.2 4.2-5.6 5.6-4.9 2.1-7.7 2.1c-2.7 0-5.3-.7-7.7-2.1s-4.2-3.2-5.6-5.6-2.1-4.9-2.1-7.7c0-2.7.7-5.3 2.1-7.7s3.2-4.3 5.6-5.6c2.4-1.4 4.9-2 7.7-2 2.7 0 5.3.7 7.7 2 2.4 1.4 4.2 3.2 5.6 5.6s2.1 4.9 2.1 7.7zm-3 0c0-3.4-1.2-6.3-3.6-8.8-2.4-2.4-5.3-3.6-8.7-3.6s-6.3 1.2-8.8 3.6c-2.4 2.4-3.6 5.3-3.6 8.8s1.2 6.3 3.6 8.8c2.4 2.4 5.3 3.6 8.8 3.6 3.4 0 6.3-1.2 8.7-3.6 2.4-2.5 3.6-5.4 3.6-8.8zm-19.3-8.2h7.3c2.1 0 3.6.4 4.5 1.3.9.8 1.4 2 1.4 3.4 0 1.1-.4 2.1-1.1 2.9s-1.8 1.4-3.4 1.8c.6.2 1.1.5 1.4.8.4.4.9.9 1.3 1.7 0 .1.9 1.6 2.7 4.8h-4.8c-1.6-3.1-2.6-5-3.1-5.6s-1.1-.9-1.6-.9c-.1 0-.3 0-.5.1v6.5h-4.1zm4.1 6.9h1.8c1.2 0 2-.2 2.5-.6s.7-.9.7-1.5-.2-1.1-.7-1.5-1.2-.6-2.3-.6h-1.9zm-156.3-138.9c-100.4 0-179 35.3-179 80.3s78.6 80.3 179 80.3 179-35.2 179-80.3-78.6-80.3-179-80.3zm169.7 75.8h-36.5c-1.8-20.2-15.7-38.9-39.8-53-2-1.2-4.1-2.3-6.3-3.4 46.4 11.9 78.9 32.8 82.6 56.4zm-235.5 4.5c0-36.3 29.5-65.8 65.8-65.8s65.8 29.5 65.8 65.8-29.5 65.8-65.8 65.8-65.8-29.5-65.8-65.8zm-8.8-4.5h-49.6c3.5-32 43.9-58.3 97-65.1-26.5 10.4-45.6 35.5-47.4 65.1zm0 9c1.8 29.7 20.9 54.7 47.4 65.1-53.1-6.8-93.5-33.1-97-65.1zm149.2 0h49.6c-3.5 32-43.9 58.3-97 65.1 26.5-10.4 45.6-35.5 47.4-65.1zm0-9c-1.8-29.7-20.9-54.7-47.4-65.1 23.2 3 44.5 9.8 61.7 19.8 21.1 12.4 33.4 28.3 35.3 45.3zm-161-56.6c-26.9 13.8-44.7 34-46.7 56.6h-36.6c3.7-23.7 36.6-44.7 83.3-56.6zm-83.3 65.6h36.5c2.1 22.6 19.8 42.8 46.7 56.6-46.6-11.9-79.5-32.9-83.2-56.6zm256.1 56.6c26.9-13.8 44.7-34 46.7-56.6h36.5c-3.6 23.7-36.5 44.7-83.2 56.6zm-33.4-37.8c-2.7-10.5-12.2-18.3-23.6-18.3-1.4 0-2.8.1-4.2.4.4-1.7.6-3.5.6-5.4 0-1.8-.2-3.6-.6-5.4 1.4.2 2.8.4 4.2.4 11.3 0 20.9-7.8 23.6-18.3 3.1 7.1 4.9 15 4.9 23.3s-1.8 16.2-4.9 23.3zm-9.1-52.7c0 8-6.5 14.5-14.5 14.5s-14.5-6.5-14.5-14.5 6.5-14.5 14.5-14.5 14.5 6.5 14.5 14.5zm-14.5 44.2c8 0 14.5 6.5 14.5 14.5s-6.5 14.5-14.5 14.5-14.5-6.5-14.5-14.5c-.1-7.9 6.5-14.5 14.5-14.5zm-6.1-67.8c-10.5 2.7-18.3 12.2-18.3 23.6 0 1.4.1 2.8.4 4.2-1.7-.4-3.5-.6-5.4-.6-1.8 0-3.6.2-5.4.6.2-1.4.4-2.8.4-4.2 0-11.3-7.8-20.9-18.3-23.6 7.1-3.1 15-4.9 23.3-4.9s16.2 1.8 23.3 4.9zm-14.3 53c0 5-4 9-9 9s-9-4-9-9 4-9 9-9 9 4 9 9zm-52.9 29.4c0-8 6.5-14.5 14.5-14.5s14.5 6.5 14.5 14.5-6.5 14.5-14.5 14.5-14.5-6.5-14.5-14.5zm14.5-44.2c-8 0-14.5-6.5-14.5-14.5s6.5-14.5 14.5-14.5 14.5 6.5 14.5 14.5-6.5 14.5-14.5 14.5zm-23.6-8.5c2.7 10.5 12.2 18.3 23.6 18.3 1.4 0 2.8-.1 4.2-.4-.4 1.7-.6 3.5-.6 5.4 0 1.8.2 3.6.6 5.4-1.4-.2-2.8-.4-4.2-.4-11.3 0-20.9 7.8-23.6 18.3-3.1-7.1-4.9-15-4.9-23.3s1.8-16.2 4.9-23.3zm29.7 76.3c10.5-2.7 18.3-12.2 18.3-23.6 0-1.4-.2-2.8-.4-4.2 1.7.4 3.5.6 5.4.6s3.6-.2 5.4-.6c-.2 1.4-.4 2.8-.4 4.2 0 11.3 7.8 20.9 18.3 23.6-7.1 3.1-15 4.9-23.3 4.9s-16.2-1.8-23.3-4.9z" fill-rule="nonzero" transform="matrix(1.00559 0 0 1.00559 78.8827 49.162)"/></svg>

<?xml version="1.0" encoding="UTF-8" standalone="no"?>
<!DOCTYPE svg PUBLIC "-//W3C//DTD SVG 1.1//EN" "http://www.w3.org/Graphics/SVG/1.1/DTD/svg11.dtd">
<svg width="100%" height="100%" viewBox="0 0 560 400" version="1.1" xmlns="http://www.w3.org/2000/svg" xmlns:xlink="http://www.w3.org/1999/xlink" xml:space="preserve" xmlns:serif="http://www.serif.com/" style="fill-rule:evenodd;clip-rule:evenodd;stroke-linejoin:round;stroke-miterlimit:1.41421;">
    <g id="black" transform="matrix(1.00559,0,0,1.00559,78.8827,49.162)">
        <path d="M374.5,209.9C374.5,212.6 373.8,215.2 372.4,217.6C371,220 369.2,221.8 366.8,223.2C364.4,224.6 361.9,225.3 359.1,225.3C356.4,225.3 353.8,224.6 351.4,223.2C349,221.8 347.2,220 345.8,217.6C344.4,215.2 343.7,212.7 343.7,209.9C343.7,207.2 344.4,204.6 345.8,202.2C347.2,199.8 349,197.9 351.4,196.6C353.8,195.2 356.3,194.6 359.1,194.6C361.8,194.6 364.4,195.3 366.8,196.6C369.2,198 371,199.8 372.4,202.2C373.8,204.6 374.5,207.1 374.5,209.9ZM371.5,209.9C371.5,206.5 370.3,203.6 367.9,201.1C365.5,198.7 362.6,197.5 359.2,197.5C355.8,197.5 352.9,198.7 350.4,201.1C348,203.5 346.8,206.4 346.8,209.9C346.8,213.4 348,216.2 350.4,218.7C352.8,221.1 355.7,222.3 359.2,222.3C362.6,222.3 365.5,221.1 367.9,218.7C370.3,216.2 371.5,213.3 371.5,209.9ZM352.2,201.7L359.5,201.7C361.6,201.7 363.1,202.1 364,203C364.9,203.8 365.4,205 365.4,206.4C365.4,207.5 365,208.5 364.3,209.3C363.6,210.1 362.5,210.7 360.9,211.1C361.5,211.3 362,211.6 362.3,211.9C362.7,212.3 363.2,212.8 363.6,213.6C363.6,213.7 364.5,215.2 366.3,218.4L361.5,218.4C359.9,215.3 358.9,213.4 358.4,212.8C357.9,212.2 357.3,211.9 356.8,211.9C356.7,211.9 356.5,211.9 356.3,212L356.3,218.5L352.2,218.5L352.2,201.7ZM356.3,208.6L358.1,208.6C359.3,208.6 360.1,208.4 360.6,208C361.1,207.6 361.3,207.1 361.3,206.5C361.3,205.9 361.1,205.4 360.6,205C360.1,204.6 359.4,204.4 358.3,204.4L356.4,204.4L356.3,208.6ZM200,69.7C99.6,69.7 21,105 21,150C21,195 99.6,230.3 200,230.3C300.4,230.3 379,195.1 379,150C379,104.9 300.4,69.7 200,69.7ZM369.7,145.5L333.2,145.5C331.4,125.3 317.5,106.6 293.4,92.5C291.4,91.3 289.3,90.2 287.1,89.1C333.5,101 366,121.9 369.7,145.5ZM134.2,150C134.2,113.7 163.7,84.2 200,84.2C236.3,84.2 265.8,113.7 265.8,150C265.8,186.3 236.3,215.8 200,215.8C163.7,215.8 134.2,186.3 134.2,150ZM125.4,145.5L75.8,145.5C79.3,113.5 119.7,87.2 172.8,80.4C146.3,90.8 127.2,115.9 125.4,145.5ZM125.4,154.5C127.2,184.2 146.3,209.2 172.8,219.6C119.7,212.8 79.3,186.5 75.8,154.5L125.4,154.5ZM274.6,154.5L324.2,154.5C320.7,186.5 280.3,212.8 227.2,219.6C253.7,209.2 272.8,184.1 274.6,154.5ZM274.6,145.5C272.8,115.8 253.7,90.8 227.2,80.4C250.4,83.4 271.7,90.2 288.9,100.2C310,112.6 322.3,128.5 324.2,145.5L274.6,145.5ZM113.6,88.9C86.7,102.7 68.9,122.9 66.9,145.5L30.3,145.5C34,121.8 66.9,100.8 113.6,88.9ZM30.3,154.5L66.8,154.5C68.9,177.1 86.6,197.3 113.5,211.1C66.9,199.2 34,178.2 30.3,154.5ZM286.4,211.1C313.3,197.3 331.1,177.1 333.1,154.5L369.6,154.5C366,178.2 333.1,199.2 286.4,211.1ZM253,173.3C250.3,162.8 240.8,155 229.4,155C228,155 226.6,155.1 225.2,155.4C225.6,153.7 225.8,151.9 225.8,150C225.8,148.2 225.6,146.4 225.2,144.6C226.6,144.8 228,145 229.4,145C240.7,145 250.3,137.2 253,126.7C256.1,133.8 257.9,141.7 257.9,150C257.9,158.3 256.1,166.2 253,173.3ZM243.9,120.6C243.9,128.6 237.4,135.1 229.4,135.1C221.4,135.1 214.9,128.6 214.9,120.6C214.9,112.6 221.4,106.1 229.4,106.1C237.4,106.1 243.9,112.6 243.9,120.6ZM229.4,164.8C237.4,164.8 243.9,171.3 243.9,179.3C243.9,187.3 237.4,193.8 229.4,193.8C221.4,193.8 214.9,187.3 214.9,179.3C214.8,171.4 221.4,164.8 229.4,164.8ZM223.3,97C212.8,99.7 205,109.2 205,120.6C205,122 205.1,123.4 205.4,124.8C203.7,124.4 201.9,124.2 200,124.2C198.2,124.2 196.4,124.4 194.6,124.8C194.8,123.4 195,122 195,120.6C195,109.3 187.2,99.7 176.7,97C183.8,93.9 191.7,92.1 200,92.1C208.3,92.1 216.2,93.9 223.3,97ZM209,150C209,155 205,159 200,159C195,159 191,155 191,150C191,145 195,141 200,141C205,141 209,145 209,150ZM156.1,179.4C156.1,171.4 162.6,164.9 170.6,164.9C178.6,164.9 185.1,171.4 185.1,179.4C185.1,187.4 178.6,193.9 170.6,193.9C162.6,193.9 156.1,187.4 156.1,179.4ZM170.6,135.2C162.6,135.2 156.1,128.7 156.1,120.7C156.1,112.7 162.6,106.2 170.6,106.2C178.6,106.2 185.1,112.7 185.1,120.7C185.1,128.7 178.6,135.2 170.6,135.2ZM147,126.7C149.7,137.2 159.2,145 170.6,145C172,145 173.4,144.9 174.8,144.6C174.4,146.3 174.2,148.1 174.2,150C174.2,151.8 174.4,153.6 174.8,155.4C173.4,155.2 172,155 170.6,155C159.3,155 149.7,162.8 147,173.3C143.9,166.2 142.1,158.3 142.1,150C142.1,141.7 143.9,133.8 147,126.7ZM176.7,203C187.2,200.3 195,190.8 195,179.4C195,178 194.8,176.6 194.6,175.2C196.3,175.6 198.1,175.8 200,175.8C201.9,175.8 203.6,175.6 205.4,175.2C205.2,176.6 205,178 205,179.4C205,190.7 212.8,200.3 223.3,203C216.2,206.1 208.3,207.9 200,207.9C191.7,207.9 183.8,206.1 176.7,203Z" style="fill-rule:nonzero;"/>
    </g>
</svg>
